X:0079
T:Allemande.
M:2/4
L:1/16
Q:1/4=104
I: :: :: :: DC
P:ABA % Aird prints a da capo
Z:Jack Campin * www.campin.me.uk * 2009
K:D
P:A
A2|d2de d2A2|f2fg f2d2|e2ef e2c2|dcde d2
A2|d2de d2A2|f2fg f2d2|e2ef e2c2|d4   d2:|
P:B
f2|a2b2 a2g2|fefg f2fg|a3b  a2g2|f4   f2:|
f2|g2ga g2e2|f2fg f2d2|g2ga g2e2|a4   a2:|
<end>
<start>
